!!!COM: Luise Adolpha Le Beau
!!!CNT: Deutsch
!!!TXO: Deutsch
!!!OTL: Fru2hlingsnacht
!!!LYR: Bernstein
!!!OPR: Fu2nf Lieder
!!!OPS: Op. 18
!!!ONM: No. 5
!!!ENC: Ben Fuhrman
!!!YOR: Frauen komponieren: 25 Lieder fu2r Singstimme und Klavier
!!!YOR: Mainz, B. Schott's So2hne, 1992.
!!!ODT: 1879
!!NB: Only vocal melody encoded.
!!NB: First instance of melodic material only encoded.
!!created: 2/15/10 1:37PM
!!proofed and posted: 2/15/10 1:38PM
**kern	**silbe
*clef G2	*
*k[b-e-a-d-]	*
*M4/4	*
*MM[Ruhig]	*
=2	=2
2r	.
4r	.
{4cc	{Die
=3	=3
4.ee-	Welt
8cc	ist
4a-	schla-
4b-	-fen
=4	=4
2e-	gan
4a-	-ge,
4r	.
=5	=5
4dd-	-still
8a-	ist's
8a-	in
4a-	Busch
4b-	und
=6	=6
2cc}	Baum}
4r	.
{4cc	{wo
=7	=7
4.dd-	erst
8dd-	de
4ee-	Vo2g-
4ff	-lein
=8	=8
2ee-	san-
4cc	-gen:
8a-	gu-
8a-	-te
=9	=9
4.cc	Nacht
8cc	und
4b-	su2-
4e-	-ssen
=10	=10
2a-}	Traum!}
4r	.
{4a-	{Viel
=11	=11
4g	tau-
4g	-send
4b-	gol
8b-	-de-
8b-	-ne
=12	=12
2ee-	Ster-
2b-	-ne
=13	=13
4an	strah-
8an	-len
8an	im
4b-	e-
8cc	-wi-
8cc	-gen
=14	=14
2b-}	Raum.}
4r	.
{4ee-	{Die
=15	=15
4.gg	gru2-
8ff	-ssen
4e-	aus
4cc	der
=16	=16
2ee-	Fer-
8b-	-ne:
8r	.
8g	gu-
8g	-te
=17	=17
4.cc	Nacht
8cc	und
4b-	su2-
4f	-ssen
=18	=18
2g}	Traum!}
4r	.
{4e-	{Ruh
=19	=19
4.ee-	aus
8cc	von
4b-	dei
4cc	-nen
=20	=20
2e-	Mu2-
4a-	-hen!
4a-	Du
=21	=21
4.dd-	schla2fst
8a-	und
4a-	ahnst
4b-	es
=22	=22
2cc}	kaum:}
2r	.
=23	=23
{4ff	{Mor-
8cc	-gen
8b-	wird's
6a-	u2-
6g	-ber-
6a-	-all
=24	=24
2ee-	blu2-
8cc	-hen!
8r	.
8ee-	Gu-
8ee-	-te
=25	=25
4.aa-	Nacht
8ee-	und
4cc	su2-
4b-	-ssen
=26	=26
2ee-}	Traum!}
4r	.
{8a-	{Gu-
8a-	-te
=27	=27
2.cc	Nacht
4cc	und
=28	=28
2b-	su2-
2e-	-ssen
=29	=29
2.a-}	Traum!}
4r	.
==	==
*-	*-
